X: 241
T:Jimmy Doyle's Favorite
R:polka
M:2/4
L:1/8
K:G
Bd de | dB BA/B/ | dd/B/ AA/B/ | dB G>A |
Bd de | dB BA/B/ | dG BA/A/ | AG G2 :|
dg g2 | fe e2 | ed d/d/d | ed B2 |
dg g/a/g | fe e/f/g/e/ | dB BA/A/ | AG G2 :|
